!!!COM: Anon.
!!!OTL: Inshu-Inaba
!!!OTC: Japanese Popular Music: A Collection of The Popular Music of Japan Rendered in to the Staff notation.
!!!CNT: Nippon, Japanese
!!!TXO: Nippon, Japan
!!!OCY: Nippon, Japan
!!!ODT: <1892///
!!!PSR: S. Miki & Co.
!!!PSP: Osaka, Nippon
!!!PDT: 1892///
!!!PPE: Y Nagai & K. Kobatake
!!!PED: Revised Second Edition
!!!PPG: page 21
!! Allegro
**kern	**silbe
*ICstr	*Lnippon
*ICvox	*
*Ikoto	*
*Ivox	*
*clefG2	*
*k[]	*
*M2/4	*
=1-	=1-
8e	.
16dd	.
16dd	.
8dd	.
8dd	.
=2	=2
16ee	.
16ee	.
16e	.
16ee	.
8ff	.
8ee	.
=3	=3
8r	.
16cc	.
16cc	.
8cc	.
8ee	.
=4	=4
8cc	.
16ee	.
16cc	.
8b	.
8a	.
=5	=5
8B	.
8B	.
8b	.
8a	.
=6	=6
16b	.
16b	.
16e	.
16a	.
8b	.
8cc	.
=7	=7
8ee	.
4b	.
8b	.
=8	=8
8e	.
16aa	.
16aa	.
8ff	.
8ee	.
=9	=9
8e	.
16dd	.
16dd	.
8dd	.
8dd	.
=10	=10
16ee	.
16ee	.
16e	.
16ee	.
8ff	.
8ee	.
=11	=11
8r	.
8cc	.
8cc	.
8ee	.
=12	=12
8cc	.
16ee	.
16cc	.
8b	.
8a	.
=13	=13
8B	.
8B	.
8b	.
8a	.
=14	=14
16b	.
16b	.
16e	.
16a	.
8b	.
8cc	.
=15	=15
8ee	.
4b	.
8b	.
=16	=16
8e	.
16aa	.
16aa	.
8ff	.
8ee	.
=17	=17
8e	.
16dd	.
16dd	.
8dd	.
8dd	.
=18	=18
16ee	.
16ee	.
16e	.
16ee	.
8ff	.
8ee	.
=19	=19
8r	.
8cc	.
8cc	.
8ee	.
=20	=20
8cc	.
16ee	.
16cc	.
8b	.
8a	.
=21	=21
8B	.
8B	.
8b	.
8a	.
=22	=22
16b	.
16b	.
16e	.
16a	.
8b	.
8cc	.
=23	=23
8ee	.
4b	.
8b	.
=24	=24
8e	.
16aa	.
16aa	.
8ff	.
8ee	.
==	==
*-	*-
!!!ENC: David Huron
!!!RDT: 2000/1/30
!!!EEV: Release 1.0
!!!ELF: 7/28
!!!YER: 2000/2/1
!!!YEM: Copyright David Huron, 2000
!!!YEN: United States of America
